images/garbage.svg

<svg height="200" viewBox="0 0 170 200" width="170" xmlns="http://www.w3.org/2000/svg"><g fill="none" transform="translate(0 7)"><path d="m16.492147 46.5c-.425746 0-.8507189.0362518-1.2703136.1083626-4.0822886.7015749-6.82289859 4.5796624-6.12132375 8.661951l22.51342645 131.0000004c.6185558 3.599221 3.7396505 6.229686 7.3916374 6.229686h93.1946275c3.675688 0 6.809727-2.663854 7.401997-6.291511l21.387755-130.9999998c.065229-.3995247.098004-.8036747.098004-1.2084892 0-4.1421356-3.357865-7.5-7.5-7.5z" fill="#4a4a4a" stroke="#979797"/><path d="m57 11v-11h53v8.41176471" stroke="#4a4a4a" stroke-linecap="round" stroke-linejoin="round" stroke-width="13"/><rect fill="#7bb515" height="21" rx="2" width="170" y="20"/><rect fill="#7bb515" height="13" rx="2" width="136" x="17" y="9"/><g stroke="#7bb515" stroke-linecap="round" stroke-width="13"><path d="m37 67 15.6923077 111"/><path d="m85.5 67v111"/><path d="m133 67-13 111" fill="#7bb515"/></g></g></svg>

<?xml version="1.0" encoding="UTF-8"?>
<svg width="170px" height="200px" viewBox="0 0 170 200" version="1.1" xmlns="http://www.w3.org/2000/svg" xmlns:xlink="http://www.w3.org/1999/xlink">
    <!-- Generator: Sketch 52.5 (67469) - http://www.bohemiancoding.com/sketch -->
    <title>Group 7</title>
    <desc>Created with Sketch.</desc>
    <g id="Page-1" stroke="none" stroke-width="1" fill="none" fill-rule="evenodd">
        <g id="Desktop-Copy-2" transform="translate(-413.000000, -1985.000000)" fill-rule="nonzero">
            <g id="Group-7" transform="translate(413.000000, 1992.000000)">
                <path d="M16.492147,46.5 C16.066401,46.5 15.6414281,46.5362518 15.2218334,46.6083626 C11.1395448,47.3099375 8.39893481,51.188025 9.10050965,55.2703136 L31.6139361,186.270314 C32.2324919,189.869535 35.3535866,192.5 39.0055735,192.5 L132.200201,192.5 C135.875889,192.5 139.009928,189.836146 139.602198,186.208489 L160.989953,55.2084892 C161.055182,54.8089645 161.087957,54.4048145 161.087957,54 C161.087957,49.8578644 157.730092,46.5 153.587957,46.5 L16.492147,46.5 Z" id="Rectangle" stroke="#979797" fill="#4A4A4A"></path>
                <polyline id="Path-14" stroke="#4A4A4A" stroke-width="13" stroke-linecap="round" stroke-linejoin="round" points="57 11 57 0 110 0 110 8.41176471"></polyline>
                <rect id="Rectangle" fill="#7BB515" x="0" y="20" width="170" height="21" rx="2"></rect>
                <rect id="Rectangle" fill="#7BB515" x="17" y="9" width="136" height="13" rx="2"></rect>
                <path d="M37,67 L52.6923077,178" id="Path-11" stroke="#7BB515" stroke-width="13" stroke-linecap="round"></path>
                <path d="M85.5,67 L85.5,178" id="Path-12" stroke="#7BB515" stroke-width="13" stroke-linecap="round"></path>
                <path d="M133,67 L120,178" id="Path-13" stroke="#7BB515" stroke-width="13" fill="#7BB515" stroke-linecap="round"></path>
            </g>
        </g>
    </g>
</svg>
